;FLAVOR:Marlin
;TIME:431
;Filament used: 0.138972m
;Layer height: 0.2
;MINX:96.697
;MINY:96.695
;MINZ:0.2
;MAXX:123.307
;MAXY:123.305
;MAXZ:27
;Generated with Cura_SteamEngine 4.12.1
M140 S65
M105
M190 S65
M104 S210
M105
M109 S210
M82 ;absolute extrusion mode
; Ender 3 Custom Start G-code
G92 E0 ; Reset Extruder
G28 ; Home all axes
G29 ; Auto leveling
G1 Z2.0 F3000 ; Move Z Axis up little to prevent scratching of Heat Bed
G1 X0.1 Y20 Z0.3 F5000.0 ; Move to start position
G1 X0.1 Y200.0 Z0.3 F1500.0 E15 ; Draw the first line
G1 X0.4 Y200.0 Z0.3 F5000.0 ; Move to side a little
G1 X0.4 Y20 Z0.3 F1500.0 E30 ; Draw the second line
G92 E0 ; Reset Extruder
G1 Z2.0 F3000 ; Move Z Axis up little to prevent scratching of Heat Bed
G1 X5 Y20 Z0.3 F5000.0 ; Move over to prevent blob squish
G92 E0
G92 E0
G1 F2700 E-6.5
;LAYER_COUNT:135
;LAYER:0
M107
G0 F6000 X100.954 Y100.239 Z0.2
;TYPE:SKIRT
G1 F2700 E0
G1 F1200 X101.474 Y99.785 E0.02296
G1 X102.205 Y99.228 E0.05353
G1 X102.465 Y99.046 E0.06408
G1 X103.411 Y98.45 E0.10127
G1 X103.658 Y98.311 E0.1107
G1 X104.509 Y97.878 E0.14245
G1 X105.529 Y97.47 E0.17899
G1 X105.781 Y97.383 E0.18786
G1 X106.696 Y97.11 E0.21962
G1 X107.441 Y96.947 E0.24498
G1 X107.773 Y96.886 E0.25621
G1 X108.718 Y96.753 E0.28795
G1 X109.271 Y96.712 E0.3064
G1 X109.352 Y96.708 E0.30909
G1 X110.077 Y96.695 E0.33321
G1 X110.287 Y96.698 E0.3402
G1 X111.714 Y96.808 E0.3878
G1 X111.927 Y96.838 E0.39495
G1 X113.122 Y97.072 E0.43545
G1 X113.253 Y97.105 E0.43995
G1 X113.921 Y97.296 E0.46305
G1 X114.201 Y97.385 E0.47283
G1 X115.098 Y97.712 E0.50458
G1 X116.031 Y98.147 E0.53882
G1 X116.27 Y98.272 E0.54779
G1 X117.097 Y98.75 E0.57956
G1 X117.622 Y99.104 E0.60062
G1 X117.907 Y99.308 E0.61228
G1 X118.66 Y99.896 E0.64405
G1 X119.187 Y100.373 E0.6677
G1 X119.272 Y100.455 E0.67162
G1 X119.831 Y101.034 E0.69839
G1 X119.966 Y101.184 E0.70511
G1 X120.574 Y101.92 E0.73686
G1 X120.91 Y102.386 E0.75596
G1 X121.013 Y102.537 E0.76204
G1 X121.572 Y103.446 E0.79754
G1 X121.682 Y103.645 E0.8051
G1 X122.042 Y104.353 E0.83152
G1 X122.135 Y104.553 E0.83885
G1 X122.501 Y105.435 E0.87061
G1 X122.83 Y106.485 E0.90721
G1 X122.916 Y106.815 E0.91855
G1 X123.117 Y107.748 E0.9503
G1 X123.245 Y108.75 E0.9839
G1 X123.268 Y109.028 E0.99317
G1 X123.307 Y109.982 E1.02493
G1 X123.285 Y110.674 E1.04796
G1 X123.266 Y110.98 E1.05815
G1 X123.167 Y111.93 E1.08992
G1 X122.983 Y112.892 E1.1225
G1 X122.903 Y113.231 E1.13408
G1 X122.645 Y114.151 E1.16586
G1 X122.253 Y115.18 E1.20249
G1 X122.131 Y115.459 E1.21262
G1 X121.509 Y116.678 E1.25813
G1 X121.466 Y116.751 E1.26095
G1 X121.121 Y117.3 E1.28252
G1 X120.988 Y117.499 E1.29048
G1 X120.425 Y118.269 E1.3222
G1 X119.959 Y118.817 E1.34613
G1 X119.738 Y119.061 E1.35708
G1 X119.068 Y119.741 E1.38883
G1 X118.497 Y120.24 E1.41405
G1 X117.796 Y120.772 E1.44332
G1 X117.533 Y120.956 E1.454
G1 X116.589 Y121.55 E1.49109
G1 X116.342 Y121.689 E1.50052
G1 X115.491 Y122.122 E1.53228
G1 X114.541 Y122.506 E1.56636
G1 X114.297 Y122.592 E1.57496
G1 X113.384 Y122.871 E1.60671
G1 X112.552 Y123.055 E1.63506
G1 X112.212 Y123.117 E1.64655
G1 X111.266 Y123.249 E1.67832
G1 X110.729 Y123.288 E1.69623
G1 X110.648 Y123.292 E1.69892
G1 X109.923 Y123.305 E1.72304
G1 X109.713 Y123.302 E1.73003
G1 X108.286 Y123.192 E1.77763
G1 X108.073 Y123.162 E1.78479
G1 X106.878 Y122.928 E1.82529
G1 X106.747 Y122.895 E1.82978
G1 X106.079 Y122.704 E1.85289
G1 X105.799 Y122.615 E1.86266
G1 X104.902 Y122.288 E1.89441
G1 X103.969 Y121.853 E1.92865
G1 X103.73 Y121.728 E1.93762
G1 X102.903 Y121.25 E1.96939
G1 X102.352 Y120.877 E1.99152
G1 X102.052 Y120.661 E2.00382
G1 X101.301 Y120.072 E2.03556
G1 X100.652 Y119.471 E2.06498
G1 X100.582 Y119.401 E2.06828
G1 X100.169 Y118.966 E2.08823
G1 X100.034 Y118.816 E2.09494
G1 X99.426 Y118.08 E2.12669
G1 X99.09 Y117.614 E2.1458
G1 X98.987 Y117.463 E2.15188
G1 X98.423 Y116.546 E2.18768
G1 X98.311 Y116.343 E2.1954
G1 X97.953 Y115.637 E2.22172
G1 X97.862 Y115.441 E2.22891
G1 X97.497 Y114.559 E2.26066
G1 X97.17 Y113.514 E2.29708
G1 X97.083 Y113.18 E2.30856
G1 X96.881 Y112.246 E2.34034
G1 X96.786 Y111.579 E2.36275
G1 X96.776 Y111.49 E2.36573
G1 X96.722 Y110.847 E2.38719
G1 X96.709 Y110.612 E2.39502
G1 X96.697 Y109.657 E2.42678
G1 X96.725 Y109.114 E2.44487
G1 X96.745 Y108.852 E2.45361
G1 X96.858 Y107.904 E2.48536
G1 X97.035 Y107.026 E2.51515
G1 X97.116 Y106.693 E2.52655
G1 X97.38 Y105.775 E2.55832
G1 X97.734 Y104.851 E2.59123
G1 X97.855 Y104.572 E2.60135
G1 X98.491 Y103.322 E2.64799
G1 X98.534 Y103.249 E2.65081
G1 X98.879 Y102.7 E2.67238
G1 X99.012 Y102.501 E2.68034
G1 X99.575 Y101.731 E2.71206
G1 X100.059 Y101.162 E2.73691
G1 X100.282 Y100.917 E2.74793
G1 X100.954 Y100.239 E2.77968
G0 F6000 X101.238 Y100.521
G1 F1200 X101.729 Y100.093 E2.80134
G1 X102.434 Y99.555 E2.83084
G1 X102.694 Y99.373 E2.84139
G1 X103.607 Y98.799 E2.87726
G1 X103.854 Y98.66 E2.88669
G1 X104.69 Y98.235 E2.91788
G1 X105.659 Y97.848 E2.95259
G1 X105.911 Y97.761 E2.96145
G1 X106.81 Y97.493 E2.99265
G1 X107.513 Y97.34 E3.01658
G1 X107.845 Y97.279 E3.02781
G1 X108.774 Y97.149 E3.05901
G1 X109.29 Y97.111 E3.07622
G1 X109.371 Y97.107 E3.07892
G1 X110.071 Y97.095 E3.1022
G1 X110.281 Y97.098 E3.10919
G1 X111.658 Y97.205 E3.15512
G1 X111.871 Y97.235 E3.16228
G1 X113.024 Y97.46 E3.20135
G1 X113.155 Y97.493 E3.20584
G1 X113.8 Y97.677 E3.22815
G1 X114.08 Y97.766 E3.23793
G1 X114.961 Y98.088 E3.26912
G1 X115.846 Y98.502 E3.30162
G1 X116.085 Y98.627 E3.31059
G1 X116.897 Y99.096 E3.34178
G1 X117.39 Y99.429 E3.36157
G1 X117.675 Y99.633 E3.37322
G1 X118.413 Y100.211 E3.4044
G1 X118.909 Y100.661 E3.42668
G1 X118.994 Y100.743 E3.43061
G1 X119.533 Y101.301 E3.45641
G1 X119.668 Y101.451 E3.46312
G1 X120.265 Y102.175 E3.49433
G1 X120.579 Y102.611 E3.5122
G1 X120.682 Y102.762 E3.51828
G1 X121.222 Y103.639 E3.55254
G1 X121.332 Y103.838 E3.5601
G1 X121.679 Y104.522 E3.58561
G1 X121.772 Y104.722 E3.59295
G1 X122.131 Y105.588 E3.62413
G1 X122.442 Y106.586 E3.65889
G1 X122.528 Y106.916 E3.67024
G1 X122.726 Y107.833 E3.70144
G1 X122.847 Y108.783 E3.73329
G1 X122.87 Y109.061 E3.74257
G1 X122.907 Y109.998 E3.77376
G1 X122.886 Y110.65 E3.79545
G1 X122.867 Y110.956 E3.80565
G1 X122.769 Y111.888 E3.83682
G1 X122.594 Y112.8 E3.86771
G1 X122.514 Y113.139 E3.87929
G1 X122.26 Y114.042 E3.91049
G1 X121.887 Y115.02 E3.94531
G1 X121.765 Y115.299 E3.95543
G1 X121.164 Y116.475 E3.99936
G1 X121.121 Y116.548 E4.00218
G1 X120.788 Y117.077 E4.02297
G1 X120.655 Y117.276 E4.03093
G1 X120.102 Y118.033 E4.06211
G1 X119.663 Y118.548 E4.08462
G1 X119.442 Y118.792 E4.09557
G1 X118.783 Y119.46 E4.12678
G1 X118.243 Y119.931 E4.15061
G1 X117.567 Y120.444 E4.17883
G1 X117.304 Y120.628 E4.18951
G1 X116.393 Y121.201 E4.22531
G1 X116.146 Y121.34 E4.23473
G1 X115.31 Y121.765 E4.26592
G1 X114.408 Y122.128 E4.29826
G1 X114.164 Y122.214 E4.30687
G1 X113.267 Y122.488 E4.33806
G1 X112.48 Y122.662 E4.36487
G1 X112.14 Y122.724 E4.37637
G1 X111.211 Y122.852 E4.40756
G1 X110.71 Y122.889 E4.42427
G1 X110.629 Y122.893 E4.42696
G1 X109.929 Y122.905 E4.45025
G1 X109.719 Y122.902 E4.45723
G1 X108.342 Y122.795 E4.50317
G1 X108.129 Y122.765 E4.51032
G1 X106.976 Y122.54 E4.5494
G1 X106.845 Y122.507 E4.55389
G1 X106.2 Y122.323 E4.5762
G1 X105.92 Y122.234 E4.58597
G1 X105.039 Y121.912 E4.61717
G1 X104.154 Y121.498 E4.64967
G1 X103.915 Y121.373 E4.65864
G1 X103.103 Y120.904 E4.68982
G1 X102.586 Y120.553 E4.71061
G1 X102.286 Y120.337 E4.7229
G1 X101.549 Y119.757 E4.7541
G1 X100.935 Y119.188 E4.78194
G1 X100.865 Y119.118 E4.78523
G1 X100.467 Y118.699 E4.80445
G1 X100.332 Y118.549 E4.81117
G1 X99.735 Y117.825 E4.84238
G1 X99.421 Y117.389 E4.86025
G1 X99.318 Y117.238 E4.86633
G1 X98.774 Y116.353 E4.90088
G1 X98.662 Y116.15 E4.90859
G1 X98.316 Y115.468 E4.93403
G1 X98.225 Y115.272 E4.94121
G1 X97.867 Y114.406 E4.97238
G1 X97.557 Y113.413 E5.00698
G1 X97.47 Y113.079 E5.01846
G1 X97.273 Y112.162 E5.04965
G1 X97.184 Y111.534 E5.07075
G1 X97.174 Y111.445 E5.07373
G1 X97.122 Y110.825 E5.09442
G1 X97.109 Y110.59 E5.10225
G1 X97.097 Y109.652 E5.13345
G1 X97.124 Y109.145 E5.15034
G1 X97.144 Y108.883 E5.15908
G1 X97.255 Y107.951 E5.1903
G1 X97.424 Y107.12 E5.2185
G1 X97.505 Y106.787 E5.2299
G1 X97.765 Y105.886 E5.26109
G1 X98.101 Y105.01 E5.29229
G1 X98.222 Y104.731 E5.30241
G1 X98.836 Y103.525 E5.34742
G1 X98.879 Y103.452 E5.35024
G1 X99.212 Y102.923 E5.37103
G1 X99.345 Y102.724 E5.37899
G1 X99.898 Y101.967 E5.41017
G1 X100.355 Y101.432 E5.43357
G1 X100.578 Y101.187 E5.44459
G1 X101.238 Y100.521 E5.47578
G0 F6000 X101.523 Y100.803
G1 F1200 X101.984 Y100.401 E5.49612
G1 X102.663 Y99.883 E5.52453
G1 X102.923 Y99.701 E5.53508
G1 X103.803 Y99.147 E5.56967
G1 X104.05 Y99.008 E5.57909
G1 X104.872 Y98.592 E5.60974
G1 X105.79 Y98.226 E5.64261
G1 X106.042 Y98.139 E5.65147
G1 X106.924 Y97.877 E5.68208
G1 X107.585 Y97.734 E5.70457
G1 X107.917 Y97.673 E5.7158
G1 X108.829 Y97.546 E5.74642
G1 X109.31 Y97.511 E5.76246
G1 X109.391 Y97.507 E5.76516
G1 X110.065 Y97.495 E5.78758
G1 X110.275 Y97.498 E5.79457
G1 X111.602 Y97.601 E5.83883
G1 X111.815 Y97.631 E5.84599
G1 X112.926 Y97.848 E5.88364
G1 X113.057 Y97.881 E5.88813
G1 X113.679 Y98.058 E5.90964
G1 X113.959 Y98.147 E5.91941
G1 X114.823 Y98.464 E5.95002
G1 X115.661 Y98.856 E5.98079
G1 X115.9 Y98.981 E5.98977
G1 X116.696 Y99.443 E6.02038
G1 X117.157 Y99.755 E6.03889
G1 X117.442 Y99.959 E6.05055
G1 X118.166 Y100.526 E6.08113
G1 X118.631 Y100.949 E6.10204
G1 X118.716 Y101.031 E6.10597
G1 X119.236 Y101.569 E6.13086
G1 X119.371 Y101.719 E6.13757
G1 X119.957 Y102.429 E6.16819
G1 X120.249 Y102.837 E6.18487
G1 X120.352 Y102.988 E6.19095
G1 X120.872 Y103.833 E6.22395
G1 X120.982 Y104.032 E6.23152
G1 X121.317 Y104.691 E6.2561
G1 X121.41 Y104.891 E6.26344
G1 X121.761 Y105.741 E6.29403
G1 X122.055 Y106.687 E6.32698
G1 X122.141 Y107.017 E6.33832
G1 X122.335 Y107.917 E6.36894
G1 X122.448 Y108.816 E6.39908
G1 X122.471 Y109.094 E6.40835
G1 X122.507 Y110.014 E6.43898
G1 X122.487 Y110.625 E6.45931
G1 X122.468 Y110.931 E6.46951
G1 X122.371 Y111.846 E6.50011
G1 X122.205 Y112.709 E6.52934
G1 X122.125 Y113.048 E6.54093
G1 X121.874 Y113.934 E6.57155
G1 X121.52 Y114.86 E6.60453
G1 X121.398 Y115.139 E6.61465
G1 X120.819 Y116.272 E6.65697
G1 X120.776 Y116.345 E6.65979
G1 X120.456 Y116.855 E6.67982
G1 X120.323 Y117.054 E6.68778
G1 X119.779 Y117.797 E6.71841
G1 X119.366 Y118.28 E6.73954
G1 X119.145 Y118.524 E6.75049
G1 X118.498 Y119.179 E6.78111
G1 X117.989 Y119.622 E6.80356
G1 X117.337 Y120.116 E6.83076
G1 X117.074 Y120.3 E6.84144
G1 X116.197 Y120.853 E6.87592
G1 X115.95 Y120.992 E6.88535
G1 X115.128 Y121.408 E6.91599
G1 X114.275 Y121.751 E6.94657
G1 X114.031 Y121.837 E6.95518
G1 X113.15 Y122.105 E6.9858
G1 X112.409 Y122.268 E7.01104
G1 X112.069 Y122.33 E7.02253
G1 X111.157 Y122.456 E7.05315
G1 X110.69 Y122.489 E7.06873
G1 X110.609 Y122.493 E7.07142
G1 X109.935 Y122.505 E7.09384
G1 X109.725 Y122.502 E7.10083
G1 X108.398 Y122.399 E7.1451
G1 X108.185 Y122.369 E7.15225
G1 X107.074 Y122.152 E7.1899
G1 X106.943 Y122.119 E7.1944
G1 X106.321 Y121.942 E7.2159
G1 X106.041 Y121.853 E7.22568
G1 X105.177 Y121.536 E7.25629
G1 X104.339 Y121.144 E7.28706
G1 X104.1 Y121.019 E7.29603
G1 X103.304 Y120.557 E7.32664
G1 X102.819 Y120.228 E7.34613
G1 X102.519 Y120.012 E7.35843
G1 X101.796 Y119.442 E7.38905
G1 X101.218 Y118.905 E7.41529
G1 X101.148 Y118.835 E7.41858
G1 X100.764 Y118.431 E7.43712
G1 X100.629 Y118.281 E7.44383
G1 X100.043 Y117.571 E7.47445
G1 X99.751 Y117.163 E7.49114
G1 X99.648 Y117.012 E7.49722
G1 X99.124 Y116.16 E7.53049
G1 X99.012 Y115.957 E7.5382
G1 X98.679 Y115.3 E7.5627
G1 X98.588 Y115.104 E7.56988
G1 X98.237 Y114.253 E7.6005
G1 X97.944 Y113.312 E7.63328
G1 X97.857 Y112.978 E7.64476
G1 X97.664 Y112.078 E7.67538
G1 X97.581 Y111.49 E7.69513
G1 X97.571 Y111.401 E7.69811
G1 X97.521 Y110.802 E7.7181
G1 X97.508 Y110.567 E7.72593
G1 X97.497 Y109.647 E7.75653
G1 X97.523 Y109.175 E7.77225
G1 X97.543 Y108.913 E7.78099
G1 X97.653 Y107.999 E7.81161
G1 X97.812 Y107.215 E7.83821
G1 X97.893 Y106.882 E7.84961
G1 X98.15 Y105.997 E7.88026
G1 X98.468 Y105.169 E7.90977
G1 X98.589 Y104.89 E7.91988
G1 X99.181 Y103.728 E7.96325
G1 X99.224 Y103.655 E7.96607
G1 X99.544 Y103.145 E7.9861
G1 X99.677 Y102.946 E7.99406
G1 X100.221 Y102.203 E8.02469
G1 X100.651 Y101.701 E8.04667
G1 X100.874 Y101.456 E8.05769
G1 X101.523 Y100.803 E8.08831
G0 F6000 X101.807 Y101.085
G1 F1200 X102.239 Y100.709 E8.10736
G1 X102.893 Y100.211 E8.1347
G1 X103.153 Y100.029 E8.14526
G1 X104 Y99.496 E8.17854
G1 X104.247 Y99.357 E8.18797
G1 X105.053 Y98.949 E8.21801
G1 X105.92 Y98.604 E8.24905
G1 X106.172 Y98.517 E8.25792
G1 X107.038 Y98.261 E8.28795
G1 X107.658 Y98.127 E8.30905
G1 X107.99 Y98.066 E8.32028
G1 X109.33 Y97.91 E8.36515
G1 X109.411 Y97.906 E8.36784
G1 X110.06 Y97.895 E8.38943
G1 X110.27 Y97.898 E8.39642
G1 X111.547 Y97.997 E8.43902
G1 X111.76 Y98.027 E8.44617
G1 X112.829 Y98.236 E8.4824
G1 X112.96 Y98.269 E8.4869
G1 X113.558 Y98.439 E8.50757
G1 X113.838 Y98.528 E8.51734
G1 X114.686 Y98.84 E8.5474
G1 X115.475 Y99.211 E8.5764
G1 X115.714 Y99.336 E8.58537
G1 X116.495 Y99.789 E8.6154
G1 X116.924 Y100.08 E8.63264
G1 X117.209 Y100.284 E8.6443
G1 X117.919 Y100.841 E8.67431
G1 X118.354 Y101.237 E8.69388
G1 X118.439 Y101.319 E8.6978
G1 X118.939 Y101.837 E8.72175
G1 X119.074 Y101.987 E8.72846
G1 X119.647 Y102.684 E8.75847
G1 X119.918 Y103.062 E8.77394
G1 X120.021 Y103.213 E8.78002
G1 X120.522 Y104.026 E8.81178
G1 X120.632 Y104.225 E8.81935
G1 X120.954 Y104.859 E8.843
G1 X121.047 Y105.059 E8.85033
G1 X121.391 Y105.894 E8.88037
G1 X121.668 Y106.788 E8.9115
G1 X121.754 Y107.118 E8.92284
G1 X121.943 Y108.001 E8.95287
G1 X122.049 Y108.849 E8.9813
G1 X122.072 Y109.127 E8.99058
G1 X122.107 Y110.029 E9.0206
G1 X122.087 Y110.6 E9.0396
G1 X122.068 Y110.906 E9.0498
G1 X121.973 Y111.804 E9.07983
G1 X121.815 Y112.617 E9.10738
G1 X121.735 Y112.956 E9.11897
G1 X121.489 Y113.825 E9.149
G1 X121.154 Y114.7 E9.18017
G1 X121.032 Y114.979 E9.19029
G1 X120.475 Y116.069 E9.23101
G1 X120.432 Y116.142 E9.23383
G1 X120.123 Y116.633 E9.25312
G1 X119.99 Y116.832 E9.26108
G1 X119.456 Y117.56 E9.29111
G1 X119.07 Y118.011 E9.31086
G1 X118.849 Y118.255 E9.3218
G1 X118.214 Y118.897 E9.35184
G1 X117.735 Y119.313 E9.37294
G1 X117.108 Y119.789 E9.39912
G1 X116.845 Y119.973 E9.4098
G1 X116 Y120.504 E9.44299
G1 X115.753 Y120.643 E9.45242
G1 X114.947 Y121.051 E9.48246
G1 X114.142 Y121.374 E9.51131
G1 X113.898 Y121.46 E9.51992
G1 X113.033 Y121.722 E9.54998
G1 X112.337 Y121.875 E9.57368
G1 X111.997 Y121.937 E9.58518
G1 X110.67 Y122.09 E9.6296
G1 X110.589 Y122.094 E9.6323
G1 X109.94 Y122.105 E9.65389
G1 X109.73 Y122.102 E9.66088
G1 X108.453 Y122.003 E9.70348
G1 X108.24 Y121.973 E9.71063
G1 X107.171 Y121.764 E9.74686
G1 X107.04 Y121.731 E9.75135
G1 X106.442 Y121.561 E9.77203
G1 X106.162 Y121.472 E9.7818
G1 X105.314 Y121.16 E9.81186
G1 X104.525 Y120.789 E9.84085
G1 X104.286 Y120.664 E9.84982
G1 X103.505 Y120.211 E9.87985
G1 X103.053 Y119.904 E9.89803
G1 X102.753 Y119.688 E9.91032
G1 X102.044 Y119.128 E9.94037
G1 X101.501 Y118.622 E9.96506
G1 X101.431 Y118.552 E9.96835
G1 X101.061 Y118.163 E9.98621
G1 X100.926 Y118.013 E9.99292
G1 X100.353 Y117.316 E10.02293
G1 X100.082 Y116.938 E10.0384
G1 X99.979 Y116.787 E10.04448
G1 X99.474 Y115.966 E10.07654
G1 X99.362 Y115.763 E10.08425
G1 X99.042 Y115.131 E10.10781
G1 X98.951 Y114.935 E10.115
G1 X98.607 Y114.1 E10.14503
G1 X98.331 Y113.211 E10.176
G1 X98.244 Y112.877 E10.18747
G1 X98.056 Y111.994 E10.2175
G1 X97.979 Y111.445 E10.23594
G1 X97.969 Y111.356 E10.23892
G1 X97.921 Y110.78 E10.25814
G1 X97.908 Y110.545 E10.26597
G1 X97.922 Y109.206 E10.31051
G1 X97.942 Y108.944 E10.31925
G1 X98.05 Y108.047 E10.3493
G1 X98.201 Y107.309 E10.37435
G1 X98.282 Y106.976 E10.38575
G1 X98.534 Y106.109 E10.41578
G1 X98.835 Y105.329 E10.44359
G1 X98.956 Y105.05 E10.4537
G1 X99.525 Y103.931 E10.49546
G1 X99.568 Y103.858 E10.49827
G1 X99.877 Y103.367 E10.51757
G1 X100.01 Y103.168 E10.52553
G1 X100.544 Y102.44 E10.55556
G1 X100.947 Y101.97 E10.57615
G1 X101.17 Y101.725 E10.58717
G1 X101.807 Y101.085 E10.6172
G1 F2700 E4.1172
;MESH:toggle_mts_1_lever.stl
G0 F6000 X108.404 Y107.978
G0 X109.783 Y109.759
